icons/arrows-up.svg

<svg xmlns="http://www.w3.org/2000/svg" width="24" height="24" viewBox="0 0 24 24">
  <path d="M5.375,3.21918018 L5.363,3.22918018 L5.37455101,3.21968877 C5.3767961,3.21788692 5.37904914,3.21609456 5.38131006,3.21431175 L5.379,3.21618018 L5.41159595,3.19125405 L5.41159595,3.19125405 C5.43366416,3.17526991 5.45619206,3.16021129 5.47933981,3.14606743 C5.49138689,3.13860692 5.50360556,3.13149883 5.5159379,3.12467117 C5.53570605,3.11379392 5.5561086,3.10337664 5.57690085,3.09365378 C5.5939015,3.08567905 5.61120435,3.07819642 5.62866398,3.07122549 C5.6484208,3.06331574 5.66820232,3.05612249 5.68826359,3.04954668 L5.70815633,3.0433274 L5.70815633,3.0433274 L5.73920434,3.03434781 C5.74963942,3.03153649 5.76014201,3.0288898 5.77070917,3.02641071 L5.797254,3.02065418 C5.81692636,3.01660063 5.83669715,3.01314373 5.85653741,3.01028349 C5.86513445,3.00897443 5.87423786,3.00778945 5.88337887,3.00672773 L5.90571929,3.00442725 C5.91745524,3.00332241 5.92920699,3.00242436 5.94096861,3.0017331 L5.98082404,3.00018018 L6.0193545,3.00018615 L6.05903139,3.0017331 C6.07079301,3.00242436 6.08254476,3.00332241 6.09428071,3.00442725 L6.11662113,3.00672773 L6.14346259,3.01028349 C6.16330285,3.01314373 6.18307364,3.01660063 6.202746,3.02065418 C6.21165326,3.02239951 6.22049441,3.02434704 6.22929083,3.02641071 L6.26100354,3.0344875 L6.29184367,3.0433274 C6.29862799,3.04539061 6.30539469,3.0475275 6.31214252,3.04973809 C6.33179768,3.05612249 6.3515792,3.06331574 6.37105852,3.07110396 C6.38879565,3.07819642 6.4060985,3.08567905 6.42322155,3.09367336 C6.4438914,3.10337664 6.46429395,3.11379392 6.48427695,3.12487577 C6.49639444,3.13149883 6.50861311,3.13860692 6.52070875,3.14599545 L6.53608818,3.15568797 L6.53608818,3.15568797 L6.58840405,3.19125405 L6.61289944,3.20970461 L6.61289944,3.20970461 C6.62095086,3.21609456 6.6232039,3.21788692 6.62544899,3.21968877 L6.70710678,3.29289322 L10.7071068,7.29289322 C11.0976311,7.68341751 11.0976311,8.31658249 10.7071068,8.70710678 C10.3466228,9.06759074 9.77939176,9.09532028 9.38710056,8.79029539 L9.29289322,8.70710678 L7,6.415 L7,20 C7,20.5522847 6.55228475,21 6,21 C5.48716416,21 5.06449284,20.6139598 5.00672773,20.1166211 L5,20 L5,6.414 L2.70710678,8.70710678 C2.31658249,9.09763107 1.68341751,9.09763107 1.29289322,8.70710678 C0.932409257,8.34662282 0.904679722,7.77939176 1.20970461,7.38710056 L1.29289322,7.29289322 L5.29289322,3.29289322 L5.35072955,3.23937638 L5.35072955,3.23937638 L5.363,3.22918018 L5.352,3.23918018 L5.375,3.21918018 Z M17.375,3.21918018 L17.363,3.22918018 L17.374551,3.21968877 C17.3767961,3.21788692 17.3790491,3.21609456 17.3813101,3.21431175 L17.379,3.21618018 L17.411596,3.19125405 L17.411596,3.19125405 C17.4336642,3.17526991 17.4561921,3.16021129 17.4793398,3.14606743 C17.4913869,3.13860692 17.5036056,3.13149883 17.5159379,3.12467117 C17.5357061,3.11379392 17.5561086,3.10337664 17.5769009,3.09365378 C17.5939015,3.08567905 17.6112044,3.07819642 17.628664,3.07122549 C17.6484208,3.06331574 17.6682023,3.05612249 17.6882636,3.04954668 L17.7081563,3.0433274 L17.7081563,3.0433274 L17.7392043,3.03434781 C17.7496394,3.03153649 17.760142,3.0288898 17.7707092,3.02641071 L17.797254,3.02065418 C17.8169264,3.01660063 17.8366972,3.01314373 17.8565374,3.01028349 C17.8651345,3.00897443 17.8742379,3.00778945 17.8833789,3.00672773 L17.9057193,3.00442725 C17.9174552,3.00332241 17.929207,3.00242436 17.9409686,3.0017331 L17.980824,3.00018018 L18.0193545,3.00018615 L18.0590314,3.0017331 C18.070793,3.00242436 18.0825448,3.00332241 18.0942807,3.00442725 L18.1166211,3.00672773 L18.1434626,3.01028349 C18.1633028,3.01314373 18.1830736,3.01660063 18.202746,3.02065418 C18.2116533,3.02239951 18.2204944,3.02434704 18.2292908,3.02641071 L18.2610035,3.0344875 L18.2918437,3.0433274 C18.298628,3.04539061 18.3053947,3.0475275 18.3121425,3.04973809 C18.3317977,3.05612249 18.3515792,3.06331574 18.3710585,3.07110396 C18.3887956,3.07819642 18.4060985,3.08567905 18.4232215,3.09367336 C18.4438914,3.10337664 18.4642939,3.11379392 18.484277,3.12487577 C18.4963944,3.13149883 18.5086131,3.13860692 18.5207088,3.14599545 L18.5360882,3.15568797 L18.5360882,3.15568797 L18.588404,3.19125405 L18.6128994,3.20970461 L18.6128994,3.20970461 C18.6209509,3.21609456 18.6232039,3.21788692 18.625449,3.21968877 L18.7071068,3.29289322 L22.7071068,7.29289322 C23.0976311,7.68341751 23.0976311,8.31658249 22.7071068,8.70710678 C22.3466228,9.06759074 21.7793918,9.09532028 21.3871006,8.79029539 L21.2928932,8.70710678 L19,6.415 L19,20 C19,20.5522847 18.5522847,21 18,21 C17.4871642,21 17.0644928,20.6139598 17.0067277,20.1166211 L17,20 L17,6.414 L14.7071068,8.70710678 C14.3165825,9.09763107 13.6834175,9.09763107 13.2928932,8.70710678 C12.9324093,8.34662282 12.9046797,7.77939176 13.2097046,7.38710056 L13.2928932,7.29289322 L17.2928932,3.29289322 L17.3507296,3.23937638 L17.3507296,3.23937638 L17.363,3.22918018 L17.352,3.23918018 L17.375,3.21918018 Z"/>
</svg>

<svg xmlns="http://www.w3.org/2000/svg" viewBox="0 0 24 24">
  <path d="M5.38 3.22h-.02.02l.03-.03a1.04 1.04 0 0 1 .28-.14h.02l.03-.02a1 1 0 0 1 .03 0h.03A1 1 0 0 1 5.88 3h.03a1 1 0 0 1 .03 0h.12a1 1 0 0 1 .03 0h.03l.02.01a1 1 0 0 1 .09.02h.03l.03.01a1 1 0 0 1 .23.1l.02.02.05.03.02.02.02.01.08.07 4 4a1 1 0 0 1-1.32 1.5l-.1-.08L7 6.4V20a1 1 0 0 1-2 .12V6.4L2.7 8.7a1 1 0 0 1-1.49-1.32l.08-.1 4-4 .06-.05.01-.01.01-.01zm12 0h-.02.02l.03-.03a1.04 1.04 0 0 1 .28-.14h.02l.03-.02a1 1 0 0 1 .03 0h.03a1 1 0 0 1 .08-.02h.03a1 1 0 0 1 .03 0l.04-.01h.08a1 1 0 0 1 .03 0h.03l.02.01a1 1 0 0 1 .09.02h.03l.03.01a1 1 0 0 1 .23.1l.02.02.05.03.02.02.02.01.08.07 4 4a1 1 0 0 1-1.32 1.5l-.1-.08L19 6.4V20a1 1 0 0 1-2 .12V6.4l-2.3 2.3a1 1 0 0 1-1.49-1.32l.08-.1 4-4 .06-.05.01-.01.02-.01z"/>
</svg>
